fa/peseta-sign.svg

<svg xmlns="http://www.w3.org/2000/svg" viewBox="0 0 384 512" height="1em" width="1em">
  <path d="M192 32c77.4 0 141.1 54.97 156.8 128h3.2c17.7 0 32 14.3 32 32s-14.3 32-32 32h-3.2c-15.7 73-79.4 128-156.8 128H96v96c0 17.7-14.33 32-32 32s-32-14.3-32-32V224c-17.67 0-32-14.3-32-32s14.33-32 32-32V64c0-17.67 14.33-32 32-32h128zm90.5 128c-13.1-37.3-48.7-64-90.5-64H96v64h186.5zM96 224v64h96c41.8 0 77.4-26.7 90.5-64H96z"/>
</svg>

<svg xmlns="http://www.w3.org/2000/svg" viewBox="0 0 384 512" height="1em" width="1em">
  <path d="M192 32C269.4 32 333.1 86.97 348.8 160H352C369.7 160 384 174.3 384 192C384 209.7 369.7 224 352 224H348.8C333.1 297 269.4 352 192 352H96V448C96 465.7 81.67 480 64 480C46.33 480 32 465.7 32 448V224C14.33 224 0 209.7 0 192C0 174.3 14.33 160 32 160V64C32 46.33 46.33 32 64 32H192zM282.5 160C269.4 122.7 233.8 96 192 96H96V160H282.5zM96 224V288H192C233.8 288 269.4 261.3 282.5 224H96z"/>
</svg>
